resources/svg/bottom-right-o.svg

<svg xmlns="http://www.w3.org/2000/svg" viewBox="0 0 15 15" fill="none"><path d="M13.5 13.5V14C13.7761 14 14 13.7761 14 13.5H13.5ZM13.5 13H8V14H13.5V13ZM14 13.5V8H13V13.5H14ZM13.8535 13.1464L1.85355 1.14645L1.14645 1.85355L13.1464 13.8536L13.8535 13.1464Z" fill="black"/></svg>

<svg xmlns="http://www.w3.org/2000/svg" viewBox="0 0 15 15" fill="none"><path d="M13.5 13.5v.5a.5.5 0 00.5-.5h-.5zm0-.5H8v1h5.5v-1zm.5.5V8h-1v5.5h1zm-.146-.354l-12-12-.708.708 12 12 .707-.708z" fill="currentColor"/></svg>
